X:22
T:Polska ur Sven Donats notbok
T:(MA5-22)
S:Efter Sven Donat
R:Polska
O:Småland
B:Sven Donats notbok
B:http://www.smus.se/earkiv/fmk/browselarge.php?lang=sw&katalogid=Ma+5&bildnr=00024
Z:Jonas Brunskog
M:3/4
L:1/16
K:G
|:G2AB c2Ac B4|d2ef g2eg f2d2|b4 a4 g4|g2fg agfe d4:|
|:g2d2 d2c2 c2B2|e2d2 d2cB A4| g2d2 d2c2 c2B2|e2d2 d2cB A4|G2AB c2Bd g2c2|BAGF G4 G4:|

